vendor/shopware/storefront/Resources/app/storefront/dist/assets/icon/default/package-closed.svg

<svg xmlns="http://www.w3.org/2000/svg" width="24" height="24" viewBox="0 0 24 24">
  <path fill="#758CA3" fill-rule="evenodd" d="M8,22 L8,16 L16,16 L16,22 L21,22 C21.5522847,22 22,21.5522847 22,21 L22,3 C22,2.44771525 21.5522847,2 21,2 L16,2 L16,6 C16,6.55228475 15.5522847,7 15,7 L9,7 C8.44771525,7 8,6.55228475 8,6 L8,2 L3,2 C2.44771525,2 2,2.44771525 2,3 L2,21 C2,21.5522847 2.44771525,22 3,22 L8,22 Z M3,8.95550994e-16 L21,8.95550994e-16 C22.6568542,1.02790497e-15 24,1.34314575 24,3 L24,21 C24,22.6568542 22.6568542,24 21,24 L3,24 C1.34314575,24 2.02906125e-16,22.6568542 0,21 L0,3 C-2.02906125e-16,1.34314575 1.34314575,2.08071949e-15 3,8.95550994e-16 Z M10,2 L10,5 L14,5 L14,2 L10,2 Z M10,22 L14,22 L14,18 L10,18 L10,22 Z"/>
</svg>

<svg xmlns="http://www.w3.org/2000/svg" width="24" height="24" viewBox="0 0 24 24"><path fill="#758CA3" fill-rule="evenodd" d="M8 22v-6h8v6h5c.5523 0 1-.4477 1-1V3c0-.5523-.4477-1-1-1h-5v4c0 .5523-.4477 1-1 1H9c-.5523 0-1-.4477-1-1V2H3c-.5523 0-1 .4477-1 1v18c0 .5523.4477 1 1 1h5zM3 0h18c1.6569 0 3 1.3431 3 3v18c0 1.6569-1.3431 3-3 3H3c-1.6569 0-3-1.3431-3-3V3c0-1.6569 1.3431-3 3-3zm7 2v3h4V2h-4zm0 20h4v-4h-4v4z"/></svg>
